storage/app/icons/phosphoricons/bold/oven-bold.svg

<svg xmlns="http://www.w3.org/2000/svg" fill="currentColor" viewBox="0 0 256 256"><path d="M208 28H48a20 20 0 0 0-20 20v160a20 20 0 0 0 20 20h160a20 20 0 0 0 20-20V48a20 20 0 0 0-20-20m-4 176H52V52h152ZM68 80a16 16 0 1 1 16 16 16 16 0 0 1-16-16m44 0a16 16 0 1 1 16 16 16 16 0 0 1-16-16m44 0a16 16 0 1 1 16 16 16 16 0 0 1-16-16M76 192h104a12 12 0 0 0 12-12v-60a12 12 0 0 0-12-12H76a12 12 0 0 0-12 12v60a12 12 0 0 0 12 12m12-60h80v36H88Z"/></svg>

<svg xmlns="http://www.w3.org/2000/svg" viewBox="0 0 256 256" fill="currentColor"><path d="M208,28H48A20,20,0,0,0,28,48V208a20,20,0,0,0,20,20H208a20,20,0,0,0,20-20V48A20,20,0,0,0,208,28Zm-4,176H52V52H204ZM68,80A16,16,0,1,1,84,96,16,16,0,0,1,68,80Zm44,0a16,16,0,1,1,16,16A16,16,0,0,1,112,80Zm44,0a16,16,0,1,1,16,16A16,16,0,0,1,156,80ZM76,192H180a12,12,0,0,0,12-12V120a12,12,0,0,0-12-12H76a12,12,0,0,0-12,12v60A12,12,0,0,0,76,192Zm12-60h80v36H88Z"/></svg>
